public/images/qusation.svg

<svg width="20" height="20" viewBox="0 0 20 20" fill="none" xmlns="http://www.w3.org/2000/svg">
<path d="M9.601 0.400391C4.298 0.400391 5.20936e-08 4.69839 5.20936e-08 10.0004C-0.000131294 11.2612 0.248116 12.5098 0.730565 13.6747C1.21301 14.8396 1.92021 15.8981 2.81177 16.7896C3.70334 17.6812 4.76179 18.3884 5.9267 18.8708C7.09161 19.3533 8.34014 19.6015 9.601 19.6014C14.902 19.6014 19.201 15.3034 19.201 10.0004C19.201 4.69839 14.902 0.400391 9.601 0.400391ZM10.497 3.86639C11.433 3.86639 11.708 4.40939 11.708 5.03039C11.708 5.80539 11.088 6.52239 10.029 6.52239C9.143 6.52239 8.721 6.07739 8.747 5.34039C8.747 4.71939 9.266 3.86639 10.497 3.86639ZM8.099 15.7504C7.459 15.7504 6.992 15.3614 7.439 13.6564L8.172 10.6314C8.299 10.1474 8.32 9.95339 8.172 9.95339C7.981 9.95339 7.15 10.2874 6.66 10.6174L6.341 10.0944C7.896 8.79539 9.684 8.03339 10.449 8.03339C11.089 8.03339 11.195 8.78939 10.876 9.95339L10.036 13.1334C9.887 13.6954 9.951 13.8894 10.1 13.8894C10.292 13.8894 10.92 13.6574 11.538 13.1704L11.9 13.6564C10.387 15.1684 8.738 15.7504 8.099 15.7504Z" fill="#00C0FF"/>
</svg>

<svg xmlns="http://www.w3.org/2000/svg" width="20" height="20" fill="none"><path fill="#00C0FF" d="M9.601.4C4.298.4 0 4.698 0 10a9.6 9.6 0 0 0 9.601 9.601c5.301 0 9.6-4.298 9.6-9.6 0-5.303-4.299-9.6-9.6-9.6m.896 3.466c.936 0 1.211.543 1.211 1.164 0 .775-.62 1.492-1.679 1.492-.886 0-1.308-.445-1.282-1.182 0-.62.519-1.474 1.75-1.474M8.099 15.75c-.64 0-1.107-.389-.66-2.094l.733-3.025c.127-.484.148-.678 0-.678-.191 0-1.022.334-1.512.664l-.319-.523c1.555-1.299 3.343-2.06 4.108-2.06.64 0 .746.755.427 1.92l-.84 3.18c-.149.561-.085.755.064.755.192 0 .82-.232 1.438-.719l.362.486c-1.513 1.512-3.162 2.094-3.801 2.094"/></svg>
